X:1
T:Title
%%score { 1 | ( 2 3 ) }
L:1/8
Q:1/4=100
M:4/4
K:D
V:1 treble nm="Grand Piano"
V:2 bass 
V:3 bass 
V:1
 FFF[EG] [FA]2 [GB][FA] | [CEA]2 [CEG]2 [A,CE]4 | [A,DF][A,DF][A,DF][A,EG] [A,FA]2 [Fd]2 | %3
w: A.~L.~Byers * * * * * *|||
[M:2/4] cA B^G | [CEA]4 |[M:4/4] [EG][CE][CE][CE] [CE]2 [FA]G | [A,DF]2 [A,EG]2 [DFA]4 | %7
w: ||||
 [DGB][DBd][DAc][DGB] [DFA] [Fd]2 [A,D] | [DF]2[K:bass] [G,CE]2 [F,D]4 |] %9
w: ||
V:2
 [D,A,D][D,A,D][D,A,D][D,A,] [D,D]2 [D,D][D,D] | A,,2 A,,2 A,,4 | D,D,D,D, D,2 [D,A,]2 | %3
[M:2/4] [E,A,E][E,CE] [E,DE][E,B,E] | A,,4 |[M:4/4] [A,,A,][A,,A,][A,,A,][A,,A,] [A,,A,]2 z E | %6
 D,2 D,2 D,4 | G,G,G,G, D, [D,A,]2 F, | A,2 A,,2 D,4 |] %9
V:3
 x8 | x8 | x8 |[M:2/4] x4 | x4 |[M:4/4] z4 z2 [A,,A,]2 | x8 | x8 | x8 |] %9

